X:3884
T:Danza Pixueta (Arrg. 2)
R:Danza
M:2/4
L:1/4
Q:1/4=220
K:D
|:"Bm"B "D"d|d "A"e|c "D"d|"Bm"B2|"Bm"B2|
"Bm"B d|"D"d d|"A"c c|"Bm"B2|"A"A2|
"Bm"B "D"d|d "A"e|c "D"d|"Bm"B2|"Bm"B2|
"Bm"B "F#m"f|f "D"d|"A"e "F#m"f|"Bm"B2|"Bm"B2|
"Bm"B "F#m"f|f f|"A"e e|"Bm"B2|"A"A2|
"Bm"B "D"d|d "A"e|c "D"d|"Bm"B2|"Bm"B2:|
